X:1
T:Title
%%score ( 1 2 ) ( 3 4 )
L:1/8
Q:1/4=110
M:4/4
K:C
V:1 treble nm="Strings 1, Treble"
V:2 treble 
V:3 bass nm="Strings 1, Bass"
V:4 bass 
V:1
 C2 [CE]>[CF] [EG]2 [CE]>C | [FA]2 [FA]2 [EG]4 | [D^F]2 [DE]>D [DF]2 [DG]>[DA] | G4 F4 | %4
w: 1.~Sol dier,~ be~ quick!~ Haste~ thy~|ar mor~ on,~|Fa tal~ if~ pas sive~ you~|be;~ *|
 [CE]2 [CD]>C [CF]2 [CE]>[CD] | [DG]2 [DF]2 [CE]4 | D2 [DE]>[DF] [D^F]2 [DB]>[CA] | [B,G]8 | %8
w: Watch~ with~ thy~ shield~ up~ and~|sword~ soon~ drawn�~|Com eth~ now~ thy~ en e|my~|
 [CA]2 [CA]>[CA] [CA]2 [CG]>[CE] | [CG]2 [CE]2 C4 | [FA]2 F>[FA] [Ac]2 [^GB]>[GB] | [EA]8 | %12
w: ||||
 [Fc]2 [FA]>[Fc] [Gd]2 [Gc]>[Gd] | [Ae]2 [Gd]2 [Fc]4 | [Fc]2 [FA]>[Fc] [Ge]2 [Gd]>[Fd] | [Ec]8 |] %16
w: ||||
V:2
 x8 | x8 | x8 | D8 | x8 | x8 | x8 | x8 | x8 | x8 | x8 | x8 | x8 | x8 | x8 | x8 |] %16
V:3
 [C,C]2 [C,C]>[C,C] [C,G,]2 [C,G,]>[C,G,] | [F,C]2 [F,C]2 [C,C]4 | %2
 [D,A,]2 [D,A,]>[D,A,] [D,D]2 [D,C]>[D,C] | [G,B,]8 | [C,G,]2 [C,G,]>[C,G,] [C,A,]2 [C,A,]>[C,A,] | %5
 [G,B,]2 [G,B,]2 [A,C]4 | [G,B,]2 [G,B,]>[G,B,] [D,D]2 [D,D]>[D,C] | B,4- [G,B,]4 | %8
 [F,A,]2 [F,A,]>[F,A,] [F,A,]2 [E,C]>[E,C] | [G,C]2 [G,C]2 [C,C]4 | %10
 [F,A,]2 [F,A,]>[F,A,] [F,A,]2 [E,B,]>[E,B,] | [A,,A,]8 | %12
 [F,C]2 [F,A,]>[F,C] [D,D]2[K:treble] [G,C]>[G,D] | [CE]2 [B,D]2 [A,C]4 | %14
 [F,A,]2 [F,A,]>[F,A,] [E,G,]2 [D,B,]>[D,B,] | [C,C]8 |] %16
V:4
 x8 | x8 | x8 | x8 | x8 | x8 | x8 | G,,4 z4 | x8 | x8 | x8 | x8 | x6[K:treble] x2 | x8 | x8 | x8 |] %16

